X: 11991
T: Entemediu De Nemesio
R: reel
M: 4/4
K: Gmajor
d2 dB dBde|A2 AA FADA|c2 cB dcBA|B2 G2 GBGB|
d2 BB dBde|A2 AA FADA|c2 cB dcBA|1 G2 GG GBGB:|2 G2 GG GABc||
|:dedB dedc|BcBA GABc|e2 ed gfed|cABA GABc|
dedB dedc|BcBA GABc|e2 ed gfed|1 cABA GABc:|2 c2 c2 c2 ef||
g3a gfed|c2 c2 c2 GB|dedB dcBA|GGGG G2 d2|
gggf gfed|fefg fedc|e2 dB dcBd|AAAA A2 FA|
fefg fedc|e2 dB dcBA|dddB dcBA|GGGG GBGB||"^Ending" G8||

